X:5123
T:The Crooked Mile
M:4/4
R:Reel
L:1/8
Q:180
C:Aidan Crossey
K:A
|:e2cA BFEF|FABc d2cB|e2cA BFEF|FABc ~B2 A2:||
e2cA faaf|ecBA FAAc|e2cA faaf|ecef afge|
e2cA faaf|ecBA FAAc|e2cA faaf|ecAc ~B2 A2||
